X:2086
T:She ec ny fiddleryn ayns yn nollick 
C:Tom Kermode, Bradda
O:Isle of Man
S:Traditional 
Z:Clague collection
B:Kiaull Vannin #86 Revised version 
M:3/4 
L:1/4
Q:100 
K:D 
A|A2 B/c/|(d d) d|(e f) g|e !fermata!d e|f2 e|d>F A|(FA) F|E2A| 
B2 A/G/|A2 g|(f e) A|G !fermata!A B|c2 B/A/|B2 E|E F E|D2|| 

